svg/color/lcx.svg

<?xml version="1.0" encoding="UTF-8" ?>
<!DOCTYPE svg PUBLIC "-//W3C//DTD SVG 1.1//EN" "http://www.w3.org/Graphics/SVG/1.1/DTD/svg11.dtd">
<svg width="250pt" height="250pt" viewBox="0 0 250 250" version="1.1" xmlns="http://www.w3.org/2000/svg">
<g id="#ffffffff">
<path fill="#ffffff" opacity="1.00" d=" M 0.00 0.00 L 250.00 0.00 L 250.00 250.00 L 0.00 250.00 L 0.00 0.00 M 125.17 79.92 C 107.87 62.08 90.52 44.26 72.74 26.90 C 72.90 37.13 71.90 47.49 72.56 57.65 C 90.26 75.41 108.20 92.94 126.01 110.59 C 143.36 93.02 160.75 75.50 178.17 58.01 C 178.27 47.67 178.31 37.31 178.00 26.97 C 160.16 44.38 142.96 62.46 125.17 79.92 M 191.61 73.51 C 174.55 90.83 157.60 108.26 140.46 125.48 C 140.48 125.72 140.53 126.19 140.55 126.43 C 157.80 143.74 175.22 160.88 192.47 178.19 C 202.94 178.30 213.40 177.95 223.85 177.62 C 206.41 160.89 189.43 143.66 172.03 126.88 C 171.00 126.19 170.74 124.65 171.94 123.98 C 189.31 106.91 206.37 89.52 224.01 72.74 C 214.04 72.37 204.06 72.23 194.08 72.30 C 193.06 72.27 192.23 72.68 191.61 73.51 M 25.99 72.79 C 42.08 88.76 58.42 104.48 74.43 120.54 C 76.04 122.28 78.17 123.68 79.10 125.96 C 61.28 143.23 43.56 160.63 26.01 178.19 C 36.37 178.31 46.73 178.37 57.09 178.46 C 74.54 160.46 92.30 142.77 109.93 124.96 C 92.48 107.39 74.97 89.87 57.29 72.54 C 46.86 72.93 36.42 72.55 25.99 72.79 M 71.71 193.67 C 71.64 204.00 72.19 214.33 71.90 224.65 C 74.60 222.47 76.96 219.91 79.35 217.42 C 94.31 202.26 109.16 186.99 124.16 171.88 C 125.11 172.17 125.91 172.68 126.56 173.41 C 143.41 190.54 160.43 207.50 177.22 224.69 C 177.34 214.35 177.98 204.00 177.61 193.66 C 159.80 176.03 141.83 158.55 123.99 140.95 C 106.60 158.55 88.94 175.91 71.71 193.67 Z" />
</g>
<g id="#5e5e5eff">
<path fill="#5e5e5e" opacity="1.00" d=" M 125.17 79.92 C 142.96 62.46 160.16 44.38 178.00 26.97 C 178.31 37.31 178.27 47.67 178.17 58.01 C 160.75 75.50 143.36 93.02 126.01 110.59 C 108.20 92.94 90.26 75.41 72.56 57.65 C 71.90 47.49 72.90 37.13 72.74 26.90 C 90.52 44.26 107.87 62.08 125.17 79.92 Z" />
<path fill="#5e5e5e" opacity="1.00" d=" M 191.61 73.51 C 192.23 72.68 193.06 72.27 194.08 72.30 C 204.06 72.23 214.04 72.37 224.01 72.74 C 206.37 89.52 189.31 106.91 171.94 123.98 C 170.74 124.65 171.00 126.19 172.03 126.88 C 189.43 143.66 206.41 160.89 223.85 177.62 C 213.40 177.95 202.94 178.30 192.47 178.19 C 175.22 160.88 157.80 143.74 140.55 126.43 C 140.53 126.19 140.48 125.72 140.46 125.48 C 157.60 108.26 174.55 90.83 191.61 73.51 Z" />
<path fill="#5e5e5e" opacity="1.00" d=" M 25.99 72.79 C 36.42 72.55 46.86 72.93 57.29 72.54 C 74.97 89.87 92.48 107.39 109.93 124.96 C 92.30 142.77 74.54 160.46 57.09 178.46 C 46.73 178.37 36.37 178.31 26.01 178.19 C 43.56 160.63 61.28 143.23 79.10 125.96 C 78.17 123.68 76.04 122.28 74.43 120.54 C 58.42 104.48 42.08 88.76 25.99 72.79 Z" />
<path fill="#5e5e5e" opacity="1.00" d=" M 71.71 193.67 C 88.94 175.91 106.60 158.55 123.99 140.95 C 141.83 158.55 159.80 176.03 177.61 193.66 C 177.98 204.00 177.34 214.35 177.22 224.69 C 160.43 207.50 143.41 190.54 126.56 173.41 C 125.91 172.68 125.11 172.17 124.16 171.88 C 109.16 186.99 94.31 202.26 79.35 217.42 C 76.96 219.91 74.60 222.47 71.90 224.65 C 72.19 214.33 71.64 204.00 71.71 193.67 Z" />
</g>
</svg>

<?xml version="1.0" encoding="utf-8"?>
<!-- Generator: Adobe Illustrator 26.0.3, SVG Export Plug-In . SVG Version: 6.00 Build 0)  -->
<svg version="1.1" id="Layer_1" xmlns="http://www.w3.org/2000/svg" xmlns:xlink="http://www.w3.org/1999/xlink" x="0px" y="0px"
	 viewBox="0 0 250 250" style="enable-background:new 0 0 250 250;" xml:space="preserve">
<style type="text/css">
	.st0{fill:#5E5E5E;}
</style>
<g id="_x23_5e5e5eff">
	<path class="st0" d="M125.2,79.9C143,62.5,160.2,44.4,178,27c0.3,10.3,0.3,20.7,0.2,31c-17.4,17.5-34.8,35-52.2,52.6
		c-17.8-17.6-35.8-35.2-53.5-52.9c-0.7-10.2,0.3-20.5,0.2-30.8C90.5,44.3,107.9,62.1,125.2,79.9z"/>
	<path class="st0" d="M191.6,73.5c0.6-0.8,1.4-1.2,2.5-1.2c10-0.1,20,0.1,29.9,0.4c-17.6,16.8-34.7,34.2-52.1,51.2
		c-1.2,0.7-0.9,2.2,0.1,2.9c17.4,16.8,34.4,34,51.8,50.7c-10.5,0.3-20.9,0.7-31.4,0.6c-17.2-17.3-34.7-34.4-51.9-51.8
		c0-0.2-0.1-0.7-0.1-0.9C157.6,108.3,174.6,90.8,191.6,73.5z"/>
	<path class="st0" d="M26,72.8c10.4-0.2,20.9,0.1,31.3-0.2C75,89.9,92.5,107.4,109.9,125c-17.6,17.8-35.4,35.5-52.8,53.5
		c-10.4-0.1-20.7-0.2-31.1-0.3c17.6-17.6,35.3-35,53.1-52.2c-0.9-2.3-3.1-3.7-4.7-5.4C58.4,104.5,42.1,88.8,26,72.8z"/>
	<path class="st0" d="M71.7,193.7c17.2-17.8,34.9-35.1,52.3-52.7c17.8,17.6,35.8,35.1,53.6,52.7c0.4,10.3-0.3,20.7-0.4,31
		c-16.8-17.2-33.8-34.2-50.7-51.3c-0.6-0.7-1.4-1.2-2.4-1.5c-15,15.1-29.9,30.4-44.8,45.5c-2.4,2.5-4.8,5.1-7.4,7.2
		C72.2,214.3,71.6,204,71.7,193.7z"/>
</g>
</svg>
